!!!COM: Vivaldi, Antonio Lucio
!!!CDT: 1678/03/04-1741/08/28
!!!OPR: 12 sonatas for two violins and basso continuo
!!!OTL: Sonata in E-flat major, op. @{OPS}, no. @{ONM} (@{SCT})
!!!OPS: 1
!!!ONM: 7
!!!OMV: 1. Preludio
!!!SCT: RV 73
!!!SCA: Antonio Vivaldi: Thematisch-systematisches Verzeichnis seiner Werke (Ryom-Verzeichnis)
!!!OMD: Largo
!!!key: E-
**kern	**dynam	**fb	**kern	**dynam	**kern	**dynam
*part3	*	*	*part2	*	*part1	*
*staff3	*	*	*staff2	*	*staff1	*
*ICstr&ICklav	*	*	*ICstr	*	*ICstr	*
*Icello&Icemba	*	*	*Ivioln	*	*Ivioln	*
*	*	*	*I#2	*	*I#1	*
*I"Violoncello\nContinuo	*	*	*I"Violin 2	*	*I"Violin 1	*
*I'bc	*	*	*I'v2	*	*I'v1	*
*>[A,A,B]	*>[A,A,B]	*>[A,A,B]	*>[A,A,B]	*>[A,A,B]	*>[A,A,B]	*>[A,A,B]
*>norep[A,B]	*>norep[A,B]	*>norep[A,B]	*>norep[A,B]	*>norep[A,B]	*>norep[A,B]	*>norep[A,B]
*>A	*>A	*>A	*>A	*>A	*>A	*>A
*clefF4	*	*	*clefG2	*	*clefG2	*
*	*	*	*	*	*	*
*M4/4	*	*	*M4/4	*	*M4/4	*
*met(c)	*	*	*met(c)	*	*met(c)	*
*MM30	*	*	*MM30	*	*MM30	*
*E-:	*	*	*E-:	*	*E-:	*
=1	=1	=1	=1	=1	=1	=1
(16E-y\LL	.	.	(16b-y\LL	.	8ee-y\L	.
16E-y\)	.	.	16b-y\)	.	.	.
(16E-y\	.	.	(16b-y\	.	(16.g\L	.
16E-y\JJ)	.	.	16b-y\JJ)	.	.	.
.	.	.	.	.	32f\JJk)	.
(16E-y\LL	.	.	(16ee-y\LL	.	8e-y/L	.
16E-y\)	.	.	16ee-y\)	.	.	.
(16E-y\	.	.	(16b-y\	.	8ee-y/J	.
16E-y\JJ)	.	.	16b-y\JJ)	.	.	.
(16D\LL	.	6	(16b-y\LL	.	8ff/L	.
16D\)	.	.	16b-y\)	.	.	.
(16D\	.	.	(16b-y\	.	(16.d/L	.
16D\JJ)	.	.	16b-y\JJ)	.	.	.
.	.	.	.	.	32c/JJk)	.
(16D\LL	.	.	(16ff\LL	.	8B-y/L	.
16D\)	.	.	16ff\)	.	.	.
(16D\	.	.	(16b-y\	.	8ff/J	.
16D\JJ)	.	.	16b-y\JJ)	.	.	.
=2	=2	=2	=2	=2	=2	=2
(16E-y\LL	.	.	(16b-y\LL	.	8gg\L	.
16E-y\)	.	.	16b-y\)	.	.	.
(16E-y\	.	.	(16b-y\	.	(16.g\L	.
16E-y\JJ)	.	.	16b-y\JJ)	.	.	.
.	.	.	.	.	32f\JJk)	.
(16E-y\LL	.	.	(16gg\LL	.	8e-y\L	.
16E-y\)	.	.	16gg\)	.	.	.
(16E-y\	.	.	(16b-y\	.	8gg\J	.
16E-y\JJ)	.	.	16b-y\JJ)	.	.	.
(16D\LL	.	6	(16b-y\LL	.	8ff/L	.
16D\)	.	.	16b-y\)	.	.	.
(16D\	.	.	(16b-y\	.	(16.d/L	.
16D\JJ)	.	.	16b-y\JJ)	.	.	.
.	.	.	.	.	32c/JJk)	.
(16D\LL	.	.	(16ff\LL	.	8B-y/L	.
16D\)	.	.	16ff\)	.	.	.
(16D\	.	.	(16b-y\	.	8ff/J	.
16D\JJ)	.	.	16b-y\JJ)	.	.	.
=3	=3	=3	=3	=3	=3	=3
(16E-y\LL	.	.	(16b-y\LL	.	8gg\L	.
16E-y\)	.	.	16b-y\)	.	.	.
(16E-y\	.	.	(16b-y\	.	(16.g\L	.
16E-y\JJ)	.	.	16b-y\JJ)	.	.	.
.	.	.	.	.	32f\JJk)	.
(16E-y\LL	.	.	(16gg\LL	.	8e-y/L	.
16E-y\)	.	.	16gg\)	.	.	.
(16E-y\	.	.	(16ee-y\	.	8gg/J	.
16E-y\JJ)	.	.	16ee-y\JJ)	.	.	.
(16F\LL	.	.	(16cc\LL	.	8aa\L	.
16F\)	.	.	16cc\)	.	.	.
(16F\	.	.	(16cc\	.	(16.a\L	.
16F\JJ)	.	.	16cc\JJ)	.	.	.
.	.	.	.	.	32g\JJk)	.
(16F\LL	.	.	(16aa\LL	.	8f\L	.
16F\)	.	.	16aa\)	.	.	.
(16F\	.	.	(16ff\	.	8aa\J	.
16F\JJ)	.	.	16ff\JJ)	.	.	.
!!LO:LB:g=original
=4	=4	=4	=4	=4	=4	=4
(16FF/LL	.	6 4	(16dd\LL	.	8bb-y\L	.
16FF/)	.	.	16dd\)	.	.	.
(16FF/	.	.	(16bb-y\	.	8dd\	.
16FF/JJ)	.	.	16bb-y\JJ)	.	.	.
(16FF/LL	.	5 3	(16cc\LL	.	8f\	.
16FF/)	.	.	16cc\)	.	.	.
(16FF/	.	.	(16ff\	.	8aa\J	.
16FF/JJ)	.	.	16ff\JJ)	.	.	.
2BB-y/	.	.	2dd\	.	2b-y\	.
=5:|!	=5:|!	=5:|!	=5:|!	=5:|!	=5:|!	=5:|!
*>B	*>B	*>B	*>B	*>B	*>B	*>B
(16GG/LL	.	6	(16b-y\LL	.	8ee-y/L	.
16GG/)	.	.	16b-y\)	.	.	.
(16GG/	.	.	(16b-y\	.	(16.g/L	.
16GG/JJ)	.	.	16b-y\JJ)	.	.	.
.	.	.	.	.	32f/JJk)	.
(16GG/LL	.	.	(16b-y\LL	.	8e-y/L	.
16GG/)	.	.	16b-y\)	.	.	.
(16GG/	.	5-r	(16b-y\	.	8dd-X/J	.
16GG/JJ)	.	.	16b-y\JJ)	.	.	.
(16AA-X/LL	.	.	(16e-y/LL	.	8cc/L	.
16AA-y/)	.	.	16e-y/)	.	.	.
(16AA-y/	.	.	(16e-y/	.	8e-y/J	.
16AA-y/JJ)	.	.	16e-y/JJ)	.	.	.
(16C/LL	.	6-r	(16ee-y\LL	.	8A-X/L	.
16C/)	.	.	16ee-y\)	.	.	.
(16C/	.	.	(16ee-y\	.	8cc/J	.
16C/JJ)	.	.	16ee-y\JJ)	.	.	.
=6	=6	=6	=6	=6	=6	=6
(16AAn/LL	.	6 5-r	(16cc\LL	.	8ff\L	.
16AA/)	.	.	16cc\)	.	.	.
(16AA/	.	.	(16cc\	.	(16.an\L	.
16AA/JJ)	.	.	16cc\JJ)	.	.	.
.	.	.	.	.	32g\JJk)	.
(16AA/LL	.	.	(16cc\LL	.	8f\L	.
16AA/)	.	.	16cc\)	.	.	.
(16AA/	.	.	(16cc\	.	8ee-y\J	.
16AA/JJ)	.	.	16cc\JJ)	.	.	.
(16BB-y/LL	.	.	(16f/LL	.	8dd/L	.
16BB-y/)	.	.	16f/)	.	.	.
(16BB-y/	.	.	(16f/	.	8f/J	.
16BB-y/JJ)	.	.	16f/JJ)	.	.	.
(16D\LL	.	6	(16ff\LL	.	8B-y/L	.
16D\)	.	.	16ff\)	.	.	.
(16D\	.	.	(16ff\	.	8dd/J	.
16D\JJ)	.	.	16ff\JJ)	.	.	.
=7	=7	=7	=7	=7	=7	=7
(16BBn/LL	.	6 5	(16dd\LL	.	8gg\L	.
16BB/)	.	.	16dd\)	.	.	.
(16BB/	.	.	(16dd\	.	(16.bn\L	.
16BB/JJ)	.	.	16dd\JJ)	.	.	.
.	.	.	.	.	32a\JJk)	.
(16BB/LL	.	.	(16dd\LL	.	8g\L	.
16BB/)	.	.	16dd\)	.	.	.
(16BB/	.	.	(16dd\	.	8ff\J	.
16BB/JJ)	.	.	16dd\JJ)	.	.	.
(16C/LL	.	.	(16g/LL	.	8ee-y/L	.
16C/)	.	.	16g/)	.	.	.
(16C/	.	.	(16g/	.	8g/J	.
16C/JJ)	.	.	16g/JJ)	.	.	.
(16E-y\LL	.	6	(16gg\LL	.	8c/L	.
16E-y\)	.	.	16gg\)	.	.	.
(16E-y\	.	.	(16gg\	.	8ee-y/J	.
16E-y\JJ)	.	.	16gg\JJ)	.	.	.
!!LO:LB:g=original
=8	=8	=8	=8	=8	=8	=8
(16F\LL	.	-	(16cc\LL	.	8aa-X\L	.
16F\)	.	.	16cc\)	.	.	.
(16F\	.	.	(16cc\	.	8ff\	.
16F\JJ)	.	.	16cc\JJ)	.	.	.
(16AAn/LL	.	6	(16ff\LL	.	8cc\	.
16AA/)	.	.	16ff\)	.	.	.
(16AA/	.	.	(16cc\	.	8ff\J	.
16AA/JJ)	.	.	16cc\JJ)	.	.	.
(16BB-y/LL	.	.	(16f/LL	.	8dd\L	.
16BB-y/)	.	.	16f/)	.	.	.
(16BB-y/	.	.	(16f/	.	(16.cc\L	.
16BB-y/JJ)	.	.	16f/JJ)	.	.	.
.	.	.	.	.	32b-y\JJk)	.
(16GG/LL	.	6	(16b-y\LL	.	8ee-y\L	.
16GG/)	.	.	16b-y\)	.	.	.
(16GG/	.	.	(16b-y\	.	8g\J	.
16GG/JJ)	.	.	16b-y\JJ)	.	.	.
=9	=9	=9	=9	=9	=9	=9
(16AA-X/LL	.	6 5	(16cc\LL	.	8f/L	.
16AA-y/)	.	.	16cc\)	.	.	.
(16AA-y/	.	.	(16cc\	.	8ee-y/	.
16AA-y/JJ)	.	.	16cc\JJ)	.	.	.
(16BB-y/LL	.	.	(16f/LL	.	8B-y/	.
16BB-y/)	.	.	16f/)	.	.	.
(16BB-y/	.	.	(16b-y/	.	8dd/J	.
16BB-y/JJ)	.	.	16b-y/JJ)	.	.	.
(16E-y\LL	p	.	(16g/LL	p	8ee-y/L	.
16E-y\)	.	.	16g/)	.	.	.
(16E-y\	.	.	(16g/	.	8e-y/J	.
16E-y\JJ)	.	.	16g/JJ)	.	.	.
(16G\LL	.	6	(16ee-y\LL	.	8r	.
16G\)	.	.	16ee-y\)	.	.	.
(16G\	.	.	(16b-y\	.	8ee-y\	p
16G\JJ)	.	.	16b-y\JJ)	.	.	.
=10	=10	=10	=10	=10	=10	=10
(16F\LL	.	-	(16cc\LL	.	8aa-X\L	.
16F\)	.	.	16cc\)	.	.	.
(16F\	.	.	(16cc\	.	8ff\	.
16F\JJ)	.	.	16cc\JJ)	.	.	.
(16AAn/LL	.	6	(16ff\LL	.	8cc\	.
16AA/)	.	.	16ff\)	.	.	.
(16AA/	.	.	(16cc\	.	8ff\J	.
16AA/JJ)	.	.	16cc\JJ)	.	.	.
(16BB-y/LL	.	.	(16f/LL	.	8dd\L	.
16BB-y/)	.	.	16f/)	.	.	.
(16BB-y/	.	.	(16f/	.	(16.cc\L	.
16BB-y/JJ)	.	.	16f/JJ)	.	.	.
.	.	.	.	.	32b-y\JJk)	.
(16GG/LL	.	6	(16b-y\LL	.	8ee-y\L	.
16GG/)	.	.	16b-y\)	.	.	.
(16GG/	.	.	(16b-y\	.	8g\J	.
16GG/JJ)	.	.	16b-y\JJ)	.	.	.
=11	=11	=11	=11	=11	=11	=11
(16AA-X/LL	.	6 5	(16cc\LL	.	8f/L	.
16AA-y/)	.	.	16cc\)	.	.	.
(16AA-y/	.	.	(16cc\	.	8ee-y/	.
16AA-y/JJ)	.	.	16cc\JJ)	.	.	.
(16BB-y/LL	.	.	(16f/LL	.	8B-y/	.
16BB-y/)	.	.	16f/)	.	.	.
(16BB-y/	.	.	(16b-y/	.	8dd/J	.
16BB-y/JJ)	.	.	16b-y/JJ)	.	.	.
2E-y\;	.	.	2g/;	.	2e-y/;	.
==	==	==	==	==	==	==
*-	*-	*-	*-	*-	*-	*-
!!!SMS: RV 65 / Estienne Roger (No. 363), Amsterdam [facs.]
!!!ENC: Fran Bennion   rev. 05/14/21 E Correia
!!!END: 2004/10/13
!!!ONB: Converted from MuseData with musedata2hum on Sat May 11 12:01:55 2024
!!!YEM: (C) 2004, 2019 Center for Computer Assisted Research in the Humanities
!!!system-decoration: [(s1,s2,s3)]
!!!URL-info: https://wiki.ccarh.org/wiki/MuseData:_Antonio_Vivaldi#Op._1:_Suonate_da_camera_a_tr.C3.A8.2C_due_violini_e_violone_o_cembalo Information about Vivaldi Op. 1 on the CCARH wiki
!!!URL-pdf: https://pdf.musedata.org/vivaldi-op01-no07.pdf#page=1 MuseData edition
!!!URL-pdf: https://s9.imslp.org/files/imglnks/usimg/1/18/IMSLP280399-PMLP10351-Vivaldi_Sonatas_Op_1_-_Violino_Primo.pdf#page=10 Violino primo part, Amsterdam: Estienne Roger, n.d.(ca.1723). Plate 363.
!!!URL-pdf: https://s9.imslp.org/files/imglnks/usimg/d/d5/IMSLP280400-PMLP10351-Vivaldi_Sonatas_Op_1_-_Violino_Secondo.pdf#page=9 Violino secondo part, Amsterdam: Estienne Roger, n.d.(ca.1723). Plate 363.
!!!URL-pdf: https://s9.imslp.org/files/imglnks/usimg/8/89/IMSLP280401-PMLP10351-Vivaldi_Sonatas_Op_1_-_Organo_e_Violoncello.pdf#page=10 Organo e Violoncello parts, Amsterdam: Estienne Roger, n.d.(ca.1723). Plate 363.
!!!URL-youtube: https://www.youtube.com/watch?v=P5HHPe_W6Uo&t=3024s L'Arte dell'Arco
!!!title: @{OTL}, mov. @{OMV}
!!!filter-vcross: vcross
!!!EEV: 2024/05/11
!!!source-file: https://bitbucket.org/musedata/vivaldi/src/master/roger/op1/no07/stage2/01/01
!!!source-file: https://bitbucket.org/musedata/vivaldi/src/master/roger/op1/no07/stage2/01/02
!!!source-file: https://bitbucket.org/musedata/vivaldi/src/master/roger/op1/no07/stage2/01/03
!!!source-file: https://bitbucket.org/musedata/vivaldi/src/master/roger/op1/no07/stage2/01/04
